science/structure/Helium_atom_QM.svg

<?xml version="1.0" encoding="UTF-8" standalone="no"?>
<!-- Created with Inkscape (http://www.inkscape.org/) -->
<svg xmlns:dc="http://purl.org/dc/elements/1.1/" xmlns:cc="http://web.resource.org/cc/" xmlns:rdf="http://www.w3.org/1999/02/22-rdf-syntax-ns#" xmlns:svg="http://www.w3.org/2000/svg" xmlns="http://www.w3.org/2000/svg" xmlns:xlink="http://www.w3.org/1999/xlink" xmlns:sodipodi="http://sodipodi.sourceforge.net/DTD/sodipodi-0.dtd" xmlns:inkscape="http://www.inkscape.org/namespaces/inkscape" version="1.0" width="664.77698" height="666.95447" id="svg2" sodipodi:version="0.32" inkscape:version="0.44" sodipodi:docname="Helium_atom_QM.svg" sodipodi:docbase="C:\Documents and Settings\Jonas\Skrivbord">
  <metadata id="metadata46">
    <rdf:RDF>
      <cc:Work rdf:about="">
        <dc:format>image/svg+xml</dc:format>
        <dc:type rdf:resource="http://purl.org/dc/dcmitype/StillImage"/>
      </cc:Work>
    </rdf:RDF>
  </metadata>
  <sodipodi:namedview inkscape:window-height="594" inkscape:window-width="909" inkscape:pageshadow="2" inkscape:pageopacity="0.0" guidetolerance="10.0" gridtolerance="10.0" objecttolerance="10.0" borderopacity="1.0" bordercolor="#666666" pagecolor="#ffffff" id="base" inkscape:zoom="0.80151308" inkscape:cx="332.38849" inkscape:cy="150.97969" inkscape:window-x="102" inkscape:window-y="-5" inkscape:current-layer="layer1"/>
  <defs id="defs4">
    <linearGradient id="linearGradient13392">
      <stop style="stop-color:#7f2aff;stop-opacity:1" offset="0" id="stop13394"/>
      <stop style="stop-color:#7f2aff;stop-opacity:0" offset="1" id="stop13396"/>
    </linearGradient>
    <linearGradient id="linearGradient12413">
      <stop style="stop-color:#ff0000;stop-opacity:1" offset="0" id="stop12415"/>
      <stop style="stop-color:#ff0000;stop-opacity:0" offset="1" id="stop12417"/>
    </linearGradient>
    <linearGradient id="linearGradient3149">
      <stop style="stop-color:#ff1cff;stop-opacity:1" offset="0" id="stop3151"/>
      <stop style="stop-color:#000000;stop-opacity:1" offset="0.03" id="stop4234"/>
      <stop style="stop-color:#241c1c;stop-opacity:1" offset="0.19" id="stop4236"/>
      <stop style="stop-color:#241c1c;stop-opacity:0" offset="1" id="stop3153"/>
    </linearGradient>
    <radialGradient cx="374.95667" cy="545.91376" r="227.14285" fx="374.95667" fy="545.91376" id="radialGradient3155" xlink:href="#linearGradient3149" gradientUnits="userSpaceOnUse"/>
    <radialGradient cx="657.5" cy="274.86218" r="37.5" fx="657.5" fy="274.86218" id="radialGradient12419" xlink:href="#linearGradient12413" gradientUnits="userSpaceOnUse"/>
    <radialGradient cx="657.5" cy="274.86218" r="37.5" fx="657.5" fy="274.86218" id="radialGradient12421" xlink:href="#linearGradient12413" gradientUnits="userSpaceOnUse"/>
    <radialGradient cx="590" cy="297.36218" r="30" fx="590" fy="297.36218" id="radialGradient13398" xlink:href="#linearGradient13392" gradientUnits="userSpaceOnUse"/>
    <radialGradient cx="590" cy="297.36218" r="30" fx="590" fy="297.36218" id="radialGradient13400" xlink:href="#linearGradient13392" gradientUnits="userSpaceOnUse"/>
    <radialGradient cx="657.5" cy="274.86218" r="37.5" fx="657.5" fy="274.86218" id="radialGradient13408" xlink:href="#linearGradient12413" gradientUnits="userSpaceOnUse"/>
    <radialGradient cx="657.5" cy="274.86218" r="37.5" fx="657.5" fy="274.86218" id="radialGradient13410" xlink:href="#linearGradient12413" gradientUnits="userSpaceOnUse"/>
    <radialGradient cx="590" cy="297.36218" r="30" fx="590" fy="297.36218" id="radialGradient13412" xlink:href="#linearGradient13392" gradientUnits="userSpaceOnUse"/>
    <radialGradient cx="590" cy="297.36218" r="30" fx="590" fy="297.36218" id="radialGradient13414" xlink:href="#linearGradient13392" gradientUnits="userSpaceOnUse"/>
  </defs>
  <g transform="translate(-76.820312,-185.40774)" id="layer1">
    <path d="M 602.85715 545.2193 A 227.14285 227.14285 0 1 1  148.57144,545.2193 A 227.14285 227.14285 0 1 1  602.85715 545.2193 z" transform="translate(-4.4335938e-6,1.4286007)" style="opacity:1;fill:url(#radialGradient3155);fill-opacity:1;stroke-width:13.19999981;stroke-linecap:butt;stroke-linejoin:round;stroke-miterlimit:4;stroke-dasharray:none" id="path2168"/>
    <path d="M 535.14287,186.6479 L 739.85713,186.6479 C 740.13414,186.6479 740.35713,186.8709 740.35713,187.1479 L 740.35713,391.86218 C 740.35713,392.13918 740.13414,392.36218 739.85713,392.36218 L 535.14287,392.36218 C 534.86586,392.36218 534.64287,392.13918 534.64287,391.86218 L 534.64287,187.1479 C 534.64287,186.8709 534.86586,186.6479 535.14287,186.6479 z " style="fill:#241c1c;fill-opacity:1;stroke:#920000;stroke-width:2.48031497;stroke-linecap:butt;stroke-linejoin:round;stroke-miterlimit:4;stroke-opacity:1" id="rect5225"/>
    <a transform="translate(-0.5,0.6428526)" style="fill:#ff0000" id="a8146">
      <g style="fill:#ff0000;stroke:#000000;stroke-opacity:1" id="g6202">
        <path d="M 375.5,546.71933 L 380.34271,544.66856 L 740.46235,391.70833" style="fill:#ff0000;fill-rule:evenodd;stroke:#000000;stroke-width:1px;stroke-linecap:butt;stroke-linejoin:miter;stroke-opacity:1" id="path6196"/>
        <path d="M 535.5,391.71933 L 375.71429,546.6479" style="fill:#ff0000;fill-rule:evenodd;stroke:#000000;stroke-width:1px;stroke-linecap:butt;stroke-linejoin:miter;stroke-opacity:1" id="path6198"/>
        <path d="M 535.5,186.71933 L 375.5,546.71933" style="fill:#ff0000;fill-rule:evenodd;stroke:#000000;stroke-width:1px;stroke-linecap:butt;stroke-linejoin:miter;stroke-opacity:1" id="path6200"/>
      </g>
    </a>
    <g transform="translate(-2.5,-0.3571426)" id="g13402">
      <path d="M 695 274.86218 A 37.5 37.5 0 1 1  620,274.86218 A 37.5 37.5 0 1 1  695 274.86218 z" transform="translate(-16.5,-20)" style="opacity:1;fill:url(#radialGradient13408);fill-opacity:1;stroke:none;stroke-width:2.48031497;stroke-linecap:butt;stroke-linejoin:round;stroke-miterlimit:4;stroke-dasharray:none;stroke-opacity:1" id="path10111"/>
      <path d="M 695 274.86218 A 37.5 37.5 0 1 1  620,274.86218 A 37.5 37.5 0 1 1  695 274.86218 z" transform="translate(-16.5,50)" style="opacity:1;fill:url(#radialGradient13410);fill-opacity:1;stroke:none;stroke-width:2.48031497;stroke-linecap:butt;stroke-linejoin:round;stroke-miterlimit:4;stroke-dasharray:none;stroke-opacity:1" id="path10117"/>
      <path d="M 620 297.36218 A 30 30 0 1 1  560,297.36218 A 30 30 0 1 1  620 297.36218 z" transform="translate(15,-10)" style="opacity:1;fill:url(#radialGradient13412);fill-opacity:1;stroke:none;stroke-width:2.48031497;stroke-linecap:butt;stroke-linejoin:round;stroke-miterlimit:4;stroke-dasharray:none;stroke-opacity:1" id="path10119"/>
      <path d="M 620 297.36218 A 30 30 0 1 1  560,297.36218 A 30 30 0 1 1  620 297.36218 z" transform="translate(85,-10)" style="opacity:1;fill:url(#radialGradient13414);fill-opacity:1;stroke:none;stroke-width:2.48031497;stroke-linecap:butt;stroke-linejoin:round;stroke-miterlimit:4;stroke-dasharray:none;stroke-opacity:1" id="path10121"/>
    </g>
    <rect width="360" height="30" rx="0.49999997" ry="1.5" x="80" y="822.36218" style="opacity:1;fill:#221c24;fill-opacity:1;stroke:none;stroke-width:2.48031497;stroke-linecap:butt;stroke-linejoin:round;stroke-miterlimit:4;stroke-dasharray:none;stroke-opacity:1" id="rect11300"/>
    <text x="79.981125" y="811.12396" style="font-size:12px;font-style:normal;font-weight:normal;fill:black;fill-opacity:1;stroke:none;stroke-width:1px;stroke-linecap:butt;stroke-linejoin:miter;stroke-opacity:1;font-family:Century Gothic" id="text11302" xml:space="preserve"><tspan x="79.981125" y="811.12396" style="font-size:36px" id="tspan11304">1 Å = 100 pm</tspan></text>
    <rect width="130" height="5" rx="0.54166663" ry="0.5" x="540" y="382.36218" style="opacity:1;fill:#eed7f4;fill-opacity:1;stroke:none;stroke-width:2.48031497;stroke-linecap:butt;stroke-linejoin:round;stroke-miterlimit:4;stroke-dasharray:none;stroke-opacity:1" id="rect11310"/>
    <text x="540" y="377.36218" style="font-size:20px;font-style:normal;font-weight:normal;fill:#e5d5ff;fill-opacity:1;stroke:none;stroke-width:1px;stroke-linecap:butt;stroke-linejoin:miter;stroke-opacity:1;font-family:Century Gothic" id="text11312" xml:space="preserve"><tspan x="540" y="377.36218" id="tspan11314">1 fm</tspan></text>
  </g>
</svg>

<?xml version="1.0" encoding="UTF-8"?><svg xmlns="http://www.w3.org/2000/svg" width="664.78" height="666.95" xmlns:xlink="http://www.w3.org/1999/xlink"><defs><linearGradient id="c"><stop offset="0" stop-color="#7f2aff"/><stop offset="1" stop-color="#7f2aff" stop-opacity="0"/></linearGradient><linearGradient id="b"><stop offset="0" stop-color="red"/><stop offset="1" stop-color="red" stop-opacity="0"/></linearGradient><linearGradient id="a"><stop offset="0" stop-color="#ff1cff"/><stop offset="0.03"/><stop offset="0.19" stop-color="#241c1c"/><stop offset="1" stop-color="#241c1c" stop-opacity="0"/></linearGradient><radialGradient cx="374.96" cy="545.91" r="227.14" fx="374.96" fy="545.91" id="d" gradientUnits="userSpaceOnUse" href="#a"/><radialGradient cx="657.5" cy="274.86" r="37.5" fx="657.5" fy="274.86" id="e" gradientUnits="userSpaceOnUse" href="#b"/><radialGradient cx="657.5" cy="274.86" r="37.5" fx="657.5" fy="274.86" id="f" gradientUnits="userSpaceOnUse" href="#b"/><radialGradient cx="590" cy="297.36" r="30" fx="590" fy="297.36" id="g" gradientUnits="userSpaceOnUse" href="#c"/><radialGradient cx="590" cy="297.36" r="30" fx="590" fy="297.36" id="h" gradientUnits="userSpaceOnUse" href="#c"/></defs><g transform="translate(-76.82 -185.408)"><path d="M602.857 545.22a227.143 227.143 0 1 1-454.286 0 227.143 227.143 0 1 1 454.286 0" transform="translate(0 1.429)" fill="url(#d)"/><path d="M535.143 186.648h204.714c.277 0 .5.223.5.5v204.714c0 .277-.223.5-.5.5H535.143a.5.5 0 0 1-.5-.5V187.148c0-.277.223-.5.5-.5z" fill="#241c1c" stroke="#920000" stroke-width="2.48" stroke-linejoin="round"/><a transform="translate(-.5 .643)" fill="red">
      <path d="m375.5 546.72 4.843-2.051 360.12-152.96m-204.963.011L375.714 546.647M535.5 186.72l-160 360" fill-rule="evenodd" stroke="#000"/>
    </a><g transform="translate(-2.5 -.357)"><path d="M695 274.862a37.5 37.5 0 1 1-75 0 37.5 37.5 0 1 1 75 0" transform="translate(-16.5 -20)" fill="url(#e)"/><path d="M695 274.862a37.5 37.5 0 1 1-75 0 37.5 37.5 0 1 1 75 0" transform="translate(-16.5 50)" fill="url(#f)"/><path d="M620 297.362a30 30 0 1 1-60 0 30 30 0 1 1 60 0" transform="translate(15 -10)" fill="url(#g)"/><path d="M620 297.362a30 30 0 1 1-60 0 30 30 0 1 1 60 0" transform="translate(85 -10)" fill="url(#h)"/></g><rect width="360" height="30" rx="0.5" ry="1.5" x="80" y="822.36" fill="#221c24"/><text x="79.98" y="811.12" xml:space="preserve" font-size="12" font-family="Century Gothic"><tspan x="79.98" y="811.12" font-size="36">1 Å = 100 pm</tspan></text><rect width="130" height="5" rx="0.54" ry="0.5" x="540" y="382.36" fill="#eed7f4"/><text x="540" y="377.36" xml:space="preserve" font-size="20" fill="#e5d5ff" font-family="Century Gothic"><tspan x="540" y="377.36">1 fm</tspan></text></g></svg>
